X: 6
T: West Clare
R: reel
M: 4/4
L: 1/8
K: Gmaj
|:Bd|e2 dB ABAG|EAAG A2 gf|e3d ABAG|EGGF G2 (3Bcd|
e3d A3G|EAAG A2 gf|e2 dB A3G|EGGF G2 (3Bcd||
|:e2 geed (3Bcd|eA A2 eABd|e2 ge edBA|(3B^cd ef g2 (3Bcd|
e2 geed (3Bcd|eA A2 EABd|e2 ge edBA|(3B^cd ef g2 (3Bcd||


Tune 999	Setting 999

